!!!OTL: 1410. Fahr wohl, mein theures Lieb!
!!!ARE: Europa, Mitteleuropa, Deutschland
!!!SCT: E1410
!!!TXL: @@DE
!!!YEM: Copyright 1995, estate of Helmut Schaffrath.
**kern	**text
*ICvox	*
*M4/4	*
*met(c)	*
*k[]	*
*C:	*
!LO:TX:a:t=Langsamer Paradeschritt.	!
!LO:TX:a:t=Mel. durch alte Corps-Studenten erhalten.	!
{4g	.
=1	=1
4cc	Eh
(8e	daß
8f)	wir
4.a	ſchei-
8g	-den
=2	=2
(4g	müſ-
16aqqL	.
16gqqJ	.
8fL	.
8gJ	.
4e)}	-ſen,
{4g	Laß
=3	=3
4cc	dich
(8e	noch
8f)	.
4.a	ein-
8g	-mal
=4	=4
(4g	küſ-
16aqqL	.
16gqqJ	.
8fL	.
8gJ	.
4e)}	-ſen!
{4g	Jch
=5	=5
4.f#	muß
8f#	an
4g	Kai-
4a	-ſers
=6	=6
2b/	Sei-
4a}	-ten
{4g	fürs
=7	=7
4.f#	fal-
8f#	-ſche
4g	Welſch-
4a	-land
=8	=8
2b	ſtrei-
16ccqqL	.
16bqqJ	.
4a}	-ten.
{4g	Fahr
=9	=9
4.cc	wohl,
8g	fahr
4.ee	wohl,
8g	mein
=10	=10
(>4fSS	theu-
8a)	.
8g	-res
4e	Lieb!
8r}	.
{8g	Fahr
=11	=11
4.cc	wohl,
8g	fahr
(8.eeL	wohl,
16dd	.
8ccJ)	.
8a	mein
=12	=12
8aq	.
(4g	theu-
8f)	.
8d	-res
4c;}	Lieb!
==	==
!!!AGN: Staende -, Soldaten - Lied, Krieg; Studenten - Lied
!!!ONB: ESAC (Essen Associative Code) Database: ERK3
!!!AMT: simple quadruple
!!!AIN: vox
!!!EED: Helmut Schaffrath
!!!EEV: 1.0
!!!RDF**kern: >= above
!!!GTL: Staendelieder (Berufslieder). 1. Soldaten- und Kriegslieder. Soldatenlieder seit dem 30jaehr. Kriege.
!!!URL-scan: https://rosdok.uni-rostock.de/mcrviewer/recordIdentifier/rosdok_ppn745177999/iview2/phys_0278.iview2?x=-128.77276441889308&y=-26.047395473346114&scale=0.5870222003877485&rotation=0&layout=singlePageLayout
!!!ENC: Anna Maria Matuszewska
!!!EEV: 2024/12/31
*-	*-
